priv/static/svgs/icons_new/sport-basketball.svg

<svg width="32" height="32" viewBox="0 0 32 32" fill="none" xmlns="http://www.w3.org/2000/svg">
  <symbol id="item" viewBox="0 0 32 32" stroke-width="1" fill="none">
    <path d="M14.955 6.5c-1.14 1.9-1.615 2.945-.665 4.18 0 0 .19.38.57.57 1.235.95 2.66.855 4.18.76 2.28-.19 4.655-.38 6.46 3.23M16.95 25.5c-3.705-1.9-3.8-4.085-3.895-6.175 0-1.425-.095-2.85-1.33-4.085l-.19-.19c-.095-.095-.665-.475-.665-.475-1.14-.665-2.565-.57-4.37.38m16.53 7.505L9.635 9.065m12.98.032c-2.3-.096-4.697.384-6.903 1.534-4.314 2.11-7.094 6.136-7.765 10.642M25.5 15.145c-.19-2.28-1.14-4.275-2.755-5.89C20.94 7.45 18.565 6.5 16 6.5h-.285c-2.47.095-4.75 1.045-6.46 2.755s-2.66 3.99-2.755 6.46V16c0 2.565.95 4.94 2.755 6.745C11.06 24.55 13.435 25.5 16 25.5c2.565 0 4.94-.95 6.745-2.755C24.55 20.94 25.5 18.565 25.5 16v-.855Z" stroke="currentColor" stroke-miterlimit="10"/>
  </symbol>
</svg>

<svg width="32" height="32" viewBox="0 0 32 32" fill="none" xmlns="http://www.w3.org/2000/svg">
<path d="M14.955 6.5C13.815 8.4 13.34 9.445 14.29 10.68C14.29 10.68 14.48 11.06 14.86 11.25C16.095 12.2 17.52 12.105 19.04 12.01C21.32 11.82 23.695 11.63 25.5 15.24M16.95 25.5C13.245 23.6 13.15 21.415 13.055 19.325C13.055 17.9 12.96 16.475 11.725 15.24C11.725 15.24 11.63 15.145 11.535 15.05C11.44 14.955 10.87 14.575 10.87 14.575C9.73 13.91 8.305 14.005 6.5 14.955M23.03 22.46L9.635 9.065M22.6153 9.09712C20.3144 9.00125 17.9175 9.48062 15.7124 10.6311C11.3981 12.7403 8.61781 16.767 7.9467 21.273M25.5 15.145C25.31 12.865 24.36 10.87 22.745 9.255C20.94 7.45 18.565 6.5 16 6.5C15.905 6.5 15.81 6.5 15.715 6.5C13.245 6.595 10.965 7.545 9.255 9.255C7.545 10.965 6.595 13.245 6.5 15.715C6.5 15.81 6.5 15.905 6.5 16C6.5 18.565 7.45 20.94 9.255 22.745C11.06 24.55 13.435 25.5 16 25.5C18.565 25.5 20.94 24.55 22.745 22.745C24.55 20.94 25.5 18.565 25.5 16C25.5 15.715 25.5 15.43 25.5 15.145Z" stroke="black" stroke-miterlimit="10"/>
</svg>
